X: 3790
T: Bison, The
R: reel
M: 4/4
K: Gdorian
|:G,3 A, B,DGF|_E/E/E GE BEGE|F2 cF _eFcF|ABGA ^FG=FA,|
G,3 A, B,DGF|_E/E/E GE BEGE|F2 cF _eFcF|1 ABG^F G4:|2 ABG^F GABd||
|:gd d/d/d gbag|fc c/c/c BcAF|Gd d/d/d gbag|^fgaf g3 a|
b/a/g a/g/^f gdcd|"^ slide"d2 _ec dBAB|Gd d/d/d cdBA|1 BGAF GABd:|2 BGAF G4||

